source/img/icon-required.svg

<svg width="6" height="27" fill="none" xmlns="http://www.w3.org/2000/svg"><path d="M3.519 10.028l-.085-1.87 1.564 1.003.544-.918-1.649-.85 1.649-.85-.544-.935-1.564 1.003.085-1.87H2.448l.085 1.87L.952 5.608l-.527.935 1.649.85-1.649.85.527.918 1.581-1.003-.085 1.87h1.071z" fill="#FE7865"/></svg>

<svg width="6" height="27" viewBox="0 0 6 27" fill="none" xmlns="http://www.w3.org/2000/svg">
<path d="M3.519 10.028L3.434 8.158L4.998 9.161L5.542 8.243L3.893 7.393L5.542 6.543L4.998 5.608L3.434 6.611L3.519 4.741H2.448L2.533 6.611L0.952 5.608L0.425 6.543L2.074 7.393L0.425 8.243L0.952 9.161L2.533 8.158L2.448 10.028H3.519Z" fill="#FE7865"/>
</svg>
